X: 7
T: Go to the Devil and Shake Yourself  v.1
P: piffero primo b0010
O: Cushing
%R: jig
F: http://ancients.sudburymuster.org/mus/ssp/pdf/MacintosF.pdf
Z: 2019 John Chambers <jc:trillian.mit.edu>
M: 6/8
L: 1/8
K: D
z |\
Add dcB | ABA AFA | Add d2e | fed B2A |\
Add dcB | ABA AFA | dfd ege | fdd d2 :|
|: z |\
afd dcd | BGG G3  | bge egd | cAA A3 |\
Add dcB | ABA AFA | dfd ege | fdd d2 :|


